X: 10423
M: C|
L: 1/8
K: G
d3e dBgB | dBgB aAAB | d3e dBgB | AcBA BGGc |\
|: B |\
dgbg agbg | dgbg ageg | dgbg agbg | dedc BGGE |\


